vendor/shopware/storefront/Resources/app/storefront/dist/assets/icon/default/align-right.svg

<svg xmlns="http://www.w3.org/2000/svg" width="24" height="24" viewBox="0 0 24 24">
  <path fill="#758CA3" fill-rule="evenodd" d="M4,5 C3.44771525,5 3,4.55228475 3,4 C3,3.44771525 3.44771525,3 4,3 L16,3 C16.5522847,3 17,3.44771525 17,4 C17,4.55228475 16.5522847,5 16,5 L4,5 Z M7,9 C6.44771525,9 6,8.55228475 6,8 C6,7.44771525 6.44771525,7 7,7 L16,7 C16.5522847,7 17,7.44771525 17,8 C17,8.55228475 16.5522847,9 16,9 L7,9 Z M5,13 C4.44771525,13 4,12.5522847 4,12 C4,11.4477153 4.44771525,11 5,11 L16,11 C16.5522847,11 17,11.4477153 17,12 C17,12.5522847 16.5522847,13 16,13 L5,13 Z M4,17 C3.44771525,17 3,16.5522847 3,16 C3,15.4477153 3.44771525,15 4,15 L16,15 C16.5522847,15 17,15.4477153 17,16 C17,16.5522847 16.5522847,17 16,17 L4,17 Z M7,21 C6.44771525,21 6,20.5522847 6,20 C6,19.4477153 6.44771525,19 7,19 L16,19 C16.5522847,19 17,19.4477153 17,20 C17,20.5522847 16.5522847,21 16,21 L7,21 Z M19,3 C19,2.44771525 19.4477153,2 20,2 C20.5522847,2 21,2.44771525 21,3 L21,21 C21,21.5522847 20.5522847,22 20,22 C19.4477153,22 19,21.5522847 19,21 L19,3 Z"/>
</svg>

<svg xmlns="http://www.w3.org/2000/svg" width="24" height="24" viewBox="0 0 24 24"><path fill="#758CA3" fill-rule="evenodd" d="M4 5c-.5523 0-1-.4477-1-1s.4477-1 1-1h12c.5523 0 1 .4477 1 1s-.4477 1-1 1H4zm3 4c-.5523 0-1-.4477-1-1s.4477-1 1-1h9c.5523 0 1 .4477 1 1s-.4477 1-1 1H7zm-2 4c-.5523 0-1-.4477-1-1s.4477-1 1-1h11c.5523 0 1 .4477 1 1s-.4477 1-1 1H5zm-1 4c-.5523 0-1-.4477-1-1s.4477-1 1-1h12c.5523 0 1 .4477 1 1s-.4477 1-1 1H4zm3 4c-.5523 0-1-.4477-1-1s.4477-1 1-1h9c.5523 0 1 .4477 1 1s-.4477 1-1 1H7zM19 3c0-.5523.4477-1 1-1s1 .4477 1 1v18c0 .5523-.4477 1-1 1s-1-.4477-1-1V3z"/></svg>
